carriers/speedy.svg

<svg width="128" height="64" viewBox="0 0 128 64" fill="none" xmlns="http://www.w3.org/2000/svg">
<rect width="128" height="64" rx="6" fill="white"/>
<path fill-rule="evenodd" clip-rule="evenodd" d="M104.861 22.1673H108.302V40.2551C106.777 40.5954 105.117 40.8191 103.213 40.8352C99.1377 40.8352 95.9088 39.0143 95.7842 34.2046C95.849 31.7892 96.7273 30.1249 98.1622 28.9748C100.34 27.4687 102.583 27.3492 104.861 28.0076V22.1673ZM104.861 31.0267C103.711 30.4399 101.762 30.5313 100.959 31.011C99.8605 31.6087 99.3343 32.6458 99.2773 34.0655C99.2952 35.7913 99.9367 36.9632 101.202 37.5812C102.294 37.9948 103.614 38.0393 104.861 37.7371V31.0267Z" fill="#404042"/>
<path fill-rule="evenodd" clip-rule="evenodd" d="M61.8614 40.6299C65.8247 40.6298 69.0257 38.6913 69.0037 33.8909C69.0713 29.1389 65.5063 27.2467 61.4734 27.466C59.5895 27.5845 58.0538 28.0439 56.6172 28.5479V45.4695H60.0417V30.7815C61.5817 30.4208 63.0223 30.3883 64.244 31.0779C65.149 31.7318 65.6977 32.8007 65.6163 34.203C65.3982 36.6902 63.8384 37.5748 61.8614 37.6486V40.6299Z" fill="#404042"/>
<path fill-rule="evenodd" clip-rule="evenodd" d="M76.1001 27.392C80.8266 27.3535 82.0949 30.2291 81.917 35.5656H73.5254C73.9598 38.2039 76.5769 38.9562 81.1859 36.8689V40.0158C73.8274 42.2606 70.3627 40.1018 70.1243 34.2942C70.1243 29.724 72.1277 27.4195 76.1001 27.392ZM76.1817 30.4162C77.7456 30.5207 78.2734 31.2194 78.4523 32.8638H73.5254C73.7534 31.5073 74.3017 30.3667 76.1817 30.4162Z" fill="#404042"/>
<path fill-rule="evenodd" clip-rule="evenodd" d="M88.9287 27.4499C93.6552 27.4114 94.9236 30.287 94.7456 35.6235H86.354C86.7884 38.2618 89.4055 39.014 94.0146 36.9268V40.0736C86.656 42.3185 83.1913 40.1597 82.9529 34.3521C82.9529 29.7819 84.9563 27.4774 88.9287 27.4499ZM89.0103 30.474C90.5742 30.5786 91.102 31.2773 91.2809 32.9216H86.354C86.5821 31.5652 87.1303 30.4246 89.0103 30.474Z" fill="#404042"/>
<path fill-rule="evenodd" clip-rule="evenodd" d="M50.464 27.4499C51.9435 27.4388 53.2418 27.7901 54.3589 28.5038V31.5834C52.3697 30.0321 49.2975 29.6525 49.0388 31.1763C48.5246 33.9818 55.6355 31.1951 55.111 37.2674C54.7585 39.8633 52.7702 40.7558 50.1922 40.8353C48.6109 40.882 47.1521 40.6098 45.8726 39.8716V36.7013C48.0751 38.1624 51.2587 38.6683 51.7095 37.1547C52.3256 34.6031 45.3858 36.573 45.7679 31.5152C45.8236 28.9825 47.389 27.6274 50.464 27.4499Z" fill="#404042"/>
<path fill-rule="evenodd" clip-rule="evenodd" d="M109.251 27.6887H112.851L115.659 35.566L118.422 27.6887H122L115.886 45.4651H112.263L113.789 40.8355L109.251 27.6887Z" fill="#404042"/>
<path fill-rule="evenodd" clip-rule="evenodd" d="M20.9314 14.6016H20.9194C20.7253 14.603 20.5318 14.6442 20.3845 14.7253L6.75478 22.1539L22.0237 31.0427C22.1651 31.1203 22.273 31.3039 22.273 31.4697L22.2727 44.4367C22.2727 44.5998 22.1564 44.7867 22.0138 44.8627L21.1921 45.3192C21.1235 45.3555 21.0371 45.3749 20.9461 45.3749H20.9304C20.8316 45.3769 20.7399 45.3575 20.668 45.3192L19.8438 44.8627C19.7034 44.788 19.5892 44.6002 19.5892 44.4367L19.5894 32.8774C19.5819 32.7927 19.5198 32.6895 19.4521 32.6503L6 24.8195V40.158C5.99967 40.5012 6.24149 40.9243 6.53839 41.0978L20.393 49.2691C20.5398 49.3551 20.7334 49.3981 20.9271 49.3984H20.9311C21.126 49.3979 21.3212 49.3569 21.4691 49.2691L35.326 41.0978C35.6213 40.9227 35.8626 40.5015 35.8624 40.158V24.8195L26.7453 30.1313C26.6048 30.2132 26.3844 30.2067 26.2471 30.122L25.4391 29.6418C25.3734 29.6009 25.3132 29.5354 25.2674 29.4571C25.2645 29.4525 25.262 29.4478 25.2594 29.4435C25.2079 29.3593 25.1785 29.2705 25.1754 29.1888L25.1548 28.2469C25.1489 28.088 25.2532 27.8947 25.3945 27.8126L35.1074 22.1539L21.4776 14.7253C21.3275 14.6419 21.1295 14.6019 20.9314 14.6016Z" fill="url(#paint0_linear_206_134)"/>
<defs>
<linearGradient id="paint0_linear_206_134" x1="24.079" y1="69.4606" x2="40.4544" y2="57.6683" gradientUnits="userSpaceOnUse">
<stop stop-color="#A90034"/>
<stop offset="1" stop-color="#DC0032"/>
</linearGradient>
</defs>
</svg>

<svg xmlns="http://www.w3.org/2000/svg" width="128" height="64" fill="none"><rect width="128" height="64" fill="#fff" rx="6"/><path fill="#404042" fill-rule="evenodd" d="M104.861 22.167h3.441v18.088c-1.525.34-3.185.564-5.089.58-4.075 0-7.304-1.82-7.429-6.63.065-2.416.943-4.08 2.378-5.23 2.178-1.506 4.421-1.626 6.699-.967v-5.84Zm0 8.86c-1.15-.587-3.099-.496-3.902-.016-1.099.598-1.625 1.635-1.682 3.055.018 1.725.66 2.897 1.925 3.515 1.092.414 2.412.458 3.659.156v-6.71ZM61.861 40.63c3.964 0 7.165-1.939 7.143-6.74.067-4.751-3.498-6.643-7.53-6.424-1.884.118-3.42.578-4.857 1.082v16.921h3.425V30.781c1.54-.36 2.98-.393 4.202.297.905.654 1.454 1.723 1.372 3.125-.218 2.487-1.778 3.372-3.755 3.446v2.98ZM76.1 27.392c4.727-.038 5.995 2.837 5.817 8.174h-8.392c.435 2.638 3.052 3.39 7.66 1.303v3.147c-7.358 2.245-10.822.086-11.06-5.722 0-4.57 2.003-6.874 5.975-6.902Zm.082 3.024c1.564.105 2.091.803 2.27 2.448h-4.927c.228-1.357.777-2.497 2.657-2.448ZM88.929 27.45c4.726-.039 5.995 2.837 5.817 8.174h-8.392c.434 2.638 3.052 3.39 7.66 1.303v3.147c-7.358 2.245-10.823.086-11.061-5.722 0-4.57 2.003-6.875 5.976-6.902Zm.081 3.024c1.564.105 2.092.803 2.27 2.448h-4.926c.228-1.357.776-2.497 2.656-2.448ZM50.464 27.45c1.48-.011 2.778.34 3.895 1.054v3.08c-1.99-1.552-5.062-1.931-5.32-.408-.514 2.806 6.596.02 6.072 6.091-.352 2.596-2.34 3.489-4.919 3.568-1.581.047-3.04-.225-4.32-.963v-3.17c2.203 1.46 5.387 1.966 5.837.453.617-2.552-6.323-.582-5.941-5.64.056-2.532 1.621-3.888 4.696-4.065ZM109.251 27.689h3.6l2.808 7.877 2.763-7.877H122l-6.114 17.776h-3.623l1.526-4.63-4.538-13.146Z" clip-rule="evenodd"/><path fill="url(#a)" fill-rule="evenodd" d="M20.931 14.602h-.012a1.154 1.154 0 0 0-.535.123l-13.63 7.429 15.27 8.889a.52.52 0 0 1 .249.427v12.967c0 .163-.117.35-.26.426l-.82.456a.532.532 0 0 1-.247.056h-.016a.54.54 0 0 1-.262-.056l-.824-.456a.525.525 0 0 1-.255-.426v-11.56a.327.327 0 0 0-.137-.227L6 24.82v15.338c0 .343.241.766.538.94l13.855 8.171c.147.086.34.13.534.13h.004c.195-.001.39-.042.538-.13l13.857-8.171c.295-.175.537-.596.536-.94V24.82l-9.117 5.311a.528.528 0 0 1-.498-.009l-.808-.48a.536.536 0 0 1-.172-.185l-.008-.014a.538.538 0 0 1-.084-.254l-.02-.942a.525.525 0 0 1 .24-.434l9.712-5.66-13.63-7.428a1.156 1.156 0 0 0-.546-.123Z" clip-rule="evenodd"/><defs><linearGradient id="a" x1="24.079" x2="40.454" y1="69.461" y2="57.668" gradientUnits="userSpaceOnUse"><stop stop-color="#A90034"/><stop offset="1" stop-color="#DC0032"/></linearGradient></defs></svg>
